app/dist/common/images/plug-power.svg

<svg height="18" width="18" xmlns="http://www.w3.org/2000/svg"><path d="m0 0h18v18h-18z" fill="#00bbdc"/><path d="m10 4h-2.003v2h-2l.005 8.005h2.998v-1.005h-2v-6.004h2.678c.601 0 1.32.179 1.322 1.107s-.64.897-1.218.897h-.778l-.004-1h-1v2h2c1.164 0 1.978-.62 2-1.897s-.903-2.103-2.04-2.103h-.96v-1.003h1c2 0 3.028 1.504 3 3.194-.025 1.525-1.356 2.809-2.995 2.809h-2.008v1h2c2.414 0 3.982-1.76 4.003-3.809.022-2.07-1.45-4.191-4-4.191z" fill="#fff"/></svg>

<!-- by TradingView --><svg width="18" height="18" xmlns="http://www.w3.org/2000/svg"><path fill="#00BBDC" d="M0 0h18v18H0z"/><path d="M10 4H7.997v2h-2l.005 8.005H9V13H7V6.996h2.678c.601 0 1.32.179 1.322 1.107.002.928-.64.897-1.218.897h-.778L9 8H8v2h2c1.164 0 1.978-.62 2-1.897C12.022 6.826 11.097 6 9.96 6H9V4.997h1c2 0 3.028 1.504 3 3.194C12.975 9.716 11.644 11 10.005 11H7.997v1h2c2.414 0 3.982-1.76 4.003-3.809C14.022 6.121 12.55 4 10 4z" fill="#fff"/></svg>
